icons/Spotifyicons.svg

<svg width="16" height="16" viewBox="0 0 16 16" fill="none" xmlns="http://www.w3.org/2000/svg">
<path d="M7.99506 15C4.13963 15 1 11.8604 1 8C1 4.13963 4.15938 1 8.04443 1C9.34767 1 10.6509 1.39492 11.7024 2.12059C11.7863 2.17983 11.811 2.29337 11.7518 2.37729C11.6925 2.46121 11.579 2.48096 11.4951 2.42666C10.5028 1.74542 9.27856 1.37518 8.04443 1.37518C4.36178 1.37518 1.37024 4.34697 1.37024 8.00494C1.37024 11.658 4.34203 14.6298 7.99506 14.6298C11.6481 14.6298 14.6248 11.658 14.6248 8.00494C14.6248 6.30183 13.9288 4.61848 12.7588 3.49788C12.6848 3.42877 12.6798 3.3103 12.7539 3.23625C12.823 3.1622 12.9415 3.1622 13.0155 3.23131C14.2743 4.43583 15 6.17842 15 8.00494C14.9951 11.8604 11.8554 15 7.99506 15Z" fill="#3D3D3D"/>
<path d="M8.13823 8.1975C8.16785 8.1975 8.19747 8.1975 8.22709 8.1975C9.55008 8.21231 10.6164 8.52825 11.4852 8.83925C11.5691 8.8738 11.6728 8.82444 11.7024 8.73558C11.7172 8.69115 11.7172 8.64672 11.6975 8.60723C11.6777 8.56774 11.6432 8.53318 11.5987 8.51837C10.7052 8.1975 9.60438 7.87169 8.22709 7.85688C6.73626 7.82726 5.43301 8.16294 4.60367 8.44432C4.55925 8.45913 4.52469 8.48875 4.50494 8.53318C4.4852 8.57267 4.48026 8.62204 4.49507 8.66647C4.52469 8.75533 4.62342 8.80469 4.71228 8.77507C5.78351 8.40483 7.02751 8.1975 8.13823 8.1975ZM11.5444 9.21936C11.4803 9.21936 11.421 9.20949 11.3618 9.18974C10.5226 8.88861 9.49578 8.58255 8.22709 8.56774C7.1608 8.55293 5.88224 8.76026 4.84063 9.11569C4.55925 9.21442 4.24824 9.06139 4.15445 8.78001C4.11002 8.64179 4.11496 8.49369 4.17913 8.36534C4.24331 8.23699 4.35191 8.13826 4.49013 8.09383C5.34415 7.80258 6.68195 7.46196 8.23696 7.48664C9.66855 7.50145 10.804 7.84207 11.7271 8.16788C11.8653 8.21724 11.9739 8.31598 12.0332 8.44432C12.0924 8.57267 12.1023 8.72077 12.0529 8.85899C11.9789 9.0762 11.7715 9.21936 11.5444 9.21936Z" fill="#3D3D3D"/>
<path d="M8.02962 10.2856C9.0811 10.2856 9.99929 10.5473 10.7645 10.799C10.8583 10.8336 10.952 10.7793 10.9817 10.6904C10.9965 10.646 10.9915 10.6016 10.9718 10.5621C10.952 10.5226 10.9175 10.493 10.8731 10.4782C10.0339 10.1968 9.11072 9.95983 8.00494 9.94502C6.9189 9.95489 6.03526 10.103 5.15162 10.4288C5.10719 10.4436 5.07264 10.4732 5.05783 10.5177C5.03808 10.5572 5.03808 10.6065 5.05289 10.646C5.08745 10.7349 5.18618 10.7793 5.27504 10.7497C6.11918 10.4387 6.96827 10.2955 8.01481 10.2906C8.01481 10.2856 8.02468 10.2856 8.02962 10.2856ZM10.8188 11.1792C10.7595 11.1792 10.7003 11.1693 10.646 11.1495C9.87588 10.8928 9.0268 10.6559 8.02962 10.6559C8.02468 10.6559 8.01481 10.6559 8.00987 10.6559C7.00776 10.6658 6.2031 10.799 5.39351 11.0952C5.11213 11.1989 4.80113 11.0508 4.69746 10.7744C4.6481 10.6411 4.65303 10.493 4.71227 10.3597C4.77151 10.2264 4.88011 10.1277 5.01834 10.0783C5.9464 9.73769 6.8646 9.58465 8 9.57478C9.16502 9.58465 10.1622 9.85123 10.9866 10.1277C11.1248 10.1721 11.2334 10.2708 11.2976 10.3992C11.3618 10.5275 11.3717 10.6756 11.3272 10.8139C11.2581 11.0311 11.0508 11.1792 10.8188 11.1792Z" fill="#3D3D3D"/>
<path d="M7.99013 5.74402C6.38576 5.74402 4.73202 6.08957 3.69535 6.65727C3.61143 6.7017 3.58181 6.80537 3.62624 6.88929C3.67067 6.96828 3.77434 7.00283 3.85826 6.9584C4.90974 6.38577 6.70663 6.04021 8.31101 6.09451C9.81665 6.13894 11.2236 6.44007 12.2652 6.94359C12.3047 6.96334 12.354 6.96828 12.3985 6.95347C12.4429 6.93866 12.4774 6.90904 12.4972 6.86954C12.5169 6.82512 12.5219 6.78069 12.5071 6.73626C12.4922 6.69183 12.4626 6.65727 12.4182 6.63753C11.3322 6.11426 9.88082 5.79832 8.32582 5.75389C8.21228 5.74895 8.10367 5.74402 7.99013 5.74402ZM3.77927 7.34839C3.58181 7.34839 3.39916 7.23978 3.30537 7.06701C3.16221 6.80537 3.26094 6.47462 3.52257 6.33146C4.68266 5.69959 6.56841 5.32441 8.33569 5.37871C9.94006 5.42808 11.4506 5.75389 12.5811 6.30184C12.7095 6.36602 12.8082 6.47462 12.8576 6.61285C12.9069 6.75107 12.897 6.89423 12.8329 7.02751C12.7687 7.15586 12.6601 7.25459 12.5268 7.30396C12.3886 7.35333 12.2405 7.34345 12.1121 7.27928C11.115 6.7955 9.76728 6.50918 8.30607 6.46475C6.75106 6.41045 5.04302 6.7412 4.04091 7.28421C3.95699 7.32371 3.86813 7.34839 3.77927 7.34839Z" fill="#3D3D3D"/>
</svg>

<svg xmlns="http://www.w3.org/2000/svg" width="16" height="16" fill="currentColor" class="si si-Spotifyicons" viewBox="0 0 16 16">
  <path d="M7.995 15C4.14 15 1 11.86 1 8s3.16-7 7.044-7a6.5 6.5 0 0 1 3.658 1.12c.084.06.109.173.05.257a.19.19 0 0 1-.257.05 6.14 6.14 0 0 0-3.45-1.052c-3.683 0-6.675 2.972-6.675 6.63a6.63 6.63 0 0 0 6.625 6.625c3.653 0 6.63-2.972 6.63-6.625 0-1.703-.696-3.387-1.866-4.507a.18.18 0 0 1-.005-.262.186.186 0 0 1 .261-.005C14.276 4.436 15 6.178 15 8.005 14.995 11.86 11.855 15 7.995 15"/>
  <path d="M8.138 8.198h.09c1.322.014 2.388.33 3.257.641a.17.17 0 0 0 .217-.103.17.17 0 0 0-.005-.129.18.18 0 0 0-.098-.089c-.894-.32-1.995-.646-3.372-.661-1.49-.03-2.794.306-3.623.587a.16.16 0 0 0-.1.09.18.18 0 0 0-.009.132c.03.09.128.139.217.11a10.9 10.9 0 0 1 3.426-.578m3.406 1.021a.6.6 0 0 1-.182-.03c-.84-.3-1.866-.606-3.135-.621a10.7 10.7 0 0 0-3.386.548.54.54 0 0 1-.687-.336.55.55 0 0 1 .025-.415.53.53 0 0 1 .311-.271 11.2 11.2 0 0 1 3.747-.607c1.432.014 2.567.355 3.49.68a.53.53 0 0 1 .306.277c.06.129.07.277.02.415a.54.54 0 0 1-.509.36M8.03 10.286c1.051 0 1.97.261 2.735.513a.167.167 0 0 0 .217-.109.167.167 0 0 0-.109-.212c-.84-.281-1.762-.518-2.868-.533-1.086.01-1.97.158-2.853.484a.14.14 0 0 0-.094.089.17.17 0 0 0-.005.128.18.18 0 0 0 .222.104c.844-.311 1.693-.454 2.74-.46 0-.004.01-.004.015-.004m2.789.893a.5.5 0 0 1-.173-.03c-.77-.256-1.62-.493-2.616-.493h-.02c-1.002.01-1.807.143-2.616.44a.545.545 0 0 1-.682-.736.52.52 0 0 1 .306-.282c.928-.34 1.847-.493 2.982-.503 1.165.01 2.162.276 2.987.553a.53.53 0 0 1 .31.271.55.55 0 0 1 .03.415.53.53 0 0 1-.508.365M7.99 5.744c-1.604 0-3.258.346-4.295.913a.17.17 0 0 0-.069.232.175.175 0 0 0 .232.07c1.052-.573 2.849-.919 4.453-.864 1.506.044 2.913.345 3.954.849a.18.18 0 0 0 .133.01.17.17 0 0 0 .1-.084.18.18 0 0 0 .01-.134.16.16 0 0 0-.09-.098c-1.086-.524-2.537-.84-4.092-.884-.114-.005-.222-.01-.336-.01M3.78 7.348a.54.54 0 0 1-.257-1.017c1.16-.631 3.045-1.007 4.813-.952 1.604.05 3.115.375 4.245.923a.55.55 0 0 1 .277.31.53.53 0 0 1-.025.416.56.56 0 0 1-.306.276.53.53 0 0 1-.415-.025c-.997-.484-2.345-.77-3.806-.814-1.555-.055-3.263.276-4.265.82a.6.6 0 0 1-.262.063"/>
</svg>
